X: 3
T: Steer Her Up
M: 2/4
L: 1/8
R: polka
K: D Mixolydian
|: A/c/ |\
dd f>e | df A>G | FA AG/F/ | Ec A>c |
dd f>e | df Ag | Bg ed/^c/ | d2- d :|
|: c/G/ |\
dA F/G/A/F/ | dA F2 | Ec- cE | GA/G/ Ec/G/ |
d>A FA | d/c/A/c/ F>g | f/e/d/f/ e/d/^c | d2- d :|
